X:1
T:Matthy Groves
M:2/2
L:1/8
K:Am
G2|A2A2c2c2|A2A2G2(GB)|c c c2d2c d|
w:It's ho-li, ho-li, ho-li-day, The_ ve-ry first day in the
e6c d|e2(ed) e2d2|c2c2G3G|
w:year. Lit-tle Mat-thy_ Groves went to the church The
A2c2G2c2|A4A3G|A2c2A2G2|A6|]
w:Ho-ly Word to hear, hear, The Ho-ly word to hear.
W:
